X: 1
T: \"Algschottis
O: Sweden
%D:
R: shottish
S: Fiddle Hell Online 2022-4-9 handout for Bronwyn Bird's workshop
Z: 2022 John Chambers <jc:trillian.mit.edu>
M: C
L: 1/8
K: Gm
z2 "^A"|: gagf g2d2- | dedB G2GA | BABc d2Bc/B/ | A2F2 [1,3 D4 :|[2 G4 :|4 G2 ||
"^B"|: (3(GAB) | c2e2- e2e2 | dBGB B2B2 | BAFA [1,3 BAFA | GABc d2 :|2,4 ccBA | G2{A}GF G2 :|
